X: 44
T: Hand Game Guessing Song (e)
N: Derived from pawnee44.krn
O: Oklahoma, U.S.A.
N: from Pawnee Music by Frances Densmore, 1926
Z: transcribed to **kern format by David Huron, August 2000
C: Skidi and Chaui Bands, 1919
L: 1/8
M: 2/4
Q: 1/4=88
K: F clef=bass
%%linebreak <none>
A,2(3B, A, G, [I:setbarnb 2]| 
G,> G, G, z | 
A,2(3B, A, G, | 
G,> G, G, z | 
D,> D,G,2[M:3/4] | 
G,> F, F,> F, F, z[M:2/4] | 
D,> D, F,3/ D,/ | 
D,> D, D, z | 
D,> D, F,3/ D,/[M:3/4] | 
D,> D, D, z D,3/ D,/[M:3/4] | 
D,> D, D, zz2 |]  



